assets/Ok button/Flat/ok_button_flat.svg

<svg width="32" height="32" viewBox="0 0 32 32" fill="none" xmlns="http://www.w3.org/2000/svg">
<path d="M2 6C2 3.79086 3.79086 2 6 2H26C28.2091 2 30 3.79086 30 6V26C30 28.2091 28.2091 30 26 30H6C3.79086 30 2 28.2091 2 26V6Z" fill="#00A6ED"/>
<path d="M9.86719 8.98438C7.16617 8.98438 4.97656 11.174 4.97656 13.875V18.1016C4.97656 20.8026 7.16617 22.9922 9.86719 22.9922C12.5682 22.9922 14.7578 20.8026 14.7578 18.1016V13.875C14.7578 11.174 12.5682 8.98438 9.86719 8.98438ZM7.72656 13.875C7.72656 12.6928 8.68495 11.7344 9.86719 11.7344C11.0494 11.7344 12.0078 12.6928 12.0078 13.875V18.1016C12.0078 19.2838 11.0494 20.2422 9.86719 20.2422C8.68495 20.2422 7.72656 19.2838 7.72656 18.1016V13.875Z" fill="white"/>
<path d="M19.75 10.3594C19.75 9.59998 19.1344 8.98438 18.375 8.98438C17.6156 8.98438 17 9.59998 17 10.3594L17 21.6172C17 22.3766 17.6156 22.9922 18.375 22.9922C19.1344 22.9922 19.75 22.3766 19.75 21.6172V17.7786C19.75 17.7446 19.764 17.7123 19.7876 17.6879L19.7897 17.6856L20.2875 17.1661C20.3434 17.1078 20.4391 17.117 20.4828 17.185L23.828 22.3846C24.2389 23.0232 25.0897 23.2079 25.7283 22.797C26.367 22.3861 26.5516 21.5353 26.1407 20.8967L22.4068 15.0928C22.3755 15.0442 22.3816 14.9804 22.4216 14.9387L25.8678 11.3419C26.3932 10.7936 26.3746 9.92316 25.8263 9.39779C25.2779 8.87242 24.4075 8.89103 23.8822 9.43936L19.9653 13.5274C19.8873 13.6088 19.75 13.5536 19.75 13.441V10.3594Z" fill="white"/>
</svg>

<svg xmlns="http://www.w3.org/2000/svg" width="32" height="32" fill="none"><path fill="#00A6ED" d="M2 6a4 4 0 0 1 4-4h20a4 4 0 0 1 4 4v20a4 4 0 0 1-4 4H6a4 4 0 0 1-4-4V6Z"/><path fill="#fff" d="M9.867 8.984a4.89 4.89 0 0 0-4.89 4.891v4.227a4.89 4.89 0 0 0 9.78 0v-4.227a4.89 4.89 0 0 0-4.89-4.89Zm-2.14 4.891a2.14 2.14 0 0 1 4.28 0v4.227a2.14 2.14 0 0 1-4.28 0v-4.227ZM19.75 10.36a1.375 1.375 0 1 0-2.75 0v11.257a1.375 1.375 0 1 0 2.75 0V17.78a.13.13 0 0 1 .038-.091l.002-.002.498-.52a.125.125 0 0 1 .195.019l3.345 5.2a1.375 1.375 0 0 0 2.313-1.488l-3.734-5.804a.125.125 0 0 1 .015-.154l3.446-3.597a1.375 1.375 0 1 0-1.986-1.903l-3.917 4.088a.125.125 0 0 1-.215-.086v-3.082Z"/></svg>
